packages/core/src/svgs/tokens/mono/DIMO.svg

<svg width="24" height="24" viewBox="0 0 24 24" fill="none" xmlns="http://www.w3.org/2000/svg">
<path d="M5.84999 6.68749C4.78124 6.68749 3.87499 7.64998 3.87499 8.74999V19.1874H2V8.74999C2 6.57499 3.72498 4.8125 5.84999 4.8125C7.97498 4.8125 9.49994 6.57499 9.49994 8.74999V16.2187C9.49994 16.7812 9.96879 17.3124 10.7 17.3124C11.0749 17.3124 11.4249 17.0187 11.5937 16.6687L16.425 6.48749C16.6625 5.98845 17.036 5.56654 17.5025 5.27025C17.969 4.97395 18.5098 4.8153 19.0625 4.8125C20.6875 4.8125 22 6.15625 22 7.81249V19.1874H20.1249V7.81249C20.1249 7.23124 19.625 6.68749 19.0625 6.68749C18.6687 6.68749 18.3125 6.9875 18.1375 7.34999L13.3062 17.5375C13.0709 18.0298 12.7017 18.4459 12.2407 18.7377C11.7796 19.0296 11.2456 19.1855 10.7 19.1874C9.09379 19.1874 7.62498 17.8624 7.62498 16.2187V8.74999C7.62498 7.64998 6.92498 6.68749 5.84999 6.68749Z" fill="white"/>
</svg>

<svg xmlns="http://www.w3.org/2000/svg" width="24" height="24" fill="none" viewBox="0 0 24 24">
    <path fill="#fff" d="M5.85 6.687c-1.069 0-1.975.963-1.975 2.063v10.437H2V8.75c0-2.175 1.725-3.937 3.85-3.937S9.5 6.575 9.5 8.75v7.469c0 .562.469 1.093 1.2 1.093.375 0 .725-.293.894-.643l4.831-10.182a2.94 2.94 0 0 1 2.637-1.674c1.625 0 2.938 1.343 2.938 3v11.374h-1.875V7.812c0-.58-.5-1.125-1.062-1.125-.394 0-.75.3-.925.663l-4.832 10.188a2.9 2.9 0 0 1-2.606 1.65c-1.606 0-3.075-1.326-3.075-2.97V8.75c0-1.1-.7-2.063-1.775-2.063"/>
</svg>
